X:1
T: Braes of Marr
P:Mackintosh Collection 2 version
C:
R:Reel
Q: 232
K:D
M:4/4
L:1/8
|:d3f d1/2d1/2d dA|BE B3/2A1/2 BE Ee|d2 df de fg|aA FD E2 D2|
d3f d1/2d1/2d dA|BE B3/2A1/2 BE Ee|d2 df de fg|aA FD E2 D2|
FA AB1/2c1/2 dA FA|GB FA E1/2E1/2E E2|FA AB AB de|fd gf e2 d2|
FA AB1/2c1/2 dA FA|GB FA E1/2E1/2E EG|FA dA Bd gb|ad gf e2 d2:|
